src/16/panel/network-cellular-3g.svg

<svg height="16" width="16" xmlns="http://www.w3.org/2000/svg"><defs><style id="current-color-scheme" type="text/css">.ColorScheme-Text{color:#dfdfdf;}.ColorScheme-Highlight{color:#5294e2;}</style></defs><path d="M0 3.062V13c0 2 2 2 2 2h12c2 0 2-2 2-2V3s0-2-2-2H2S0 1 0 3.062zM2 3h4c.667.016 1.167.838.876 1.437L5.5 7.22c.354.115.749.195.968.437.333.366.532.81.532 1.344v2c0 1.112-.908 2-2 2H2v-2h3V9H4c-.667-.016-1.167-.838-.875-1.438L4.376 5H2zm10 0c2 0 2 2 2 2v1h-2V5h-2v6h2V9h-1l.001-1.969 2-.031 1 .031v3.938s0 2.031-2 2.031h-2s-2 0-2-2V5c0-2 2-2 2-2z" color="#bebebe" fill="#dfdfdf"/></svg>

<svg xmlns="http://www.w3.org/2000/svg" width="16" height="16" version="1.1">
 <defs>
  <style id="current-color-scheme" type="text/css">
   .ColorScheme-Text { color:#dfdfdf; } .ColorScheme-Highlight { color:#4285f4; }
  </style>
 </defs>
 <path style="fill:currentColor" class="ColorScheme-Text" d="M 0,3.06 V 13 C 0,15 2,15 2,15 H 14 C 16,15 16,13 16,13 V 3 C 16,3 16,1 14,1 H 2 C 2,1 0,1 0,3.06 Z M 2,3 H 6 C 6.67,3.01 7.17,3.84 6.88,4.43 L 5.5,7.22 C 5.85,7.33 6.25,7.41 6.47,7.65 6.8,8.02 7,8.46 7,9 V 11 C 7,12.11 6.09,13 5,13 H 2 V 11 H 5 V 9 H 4 C 3.33,8.98 2.83,8.16 3.13,7.56 L 4.38,5 H 2 Z M 12,3 C 14,3 14,5 14,5 V 6 H 12 V 5 H 10 V 11 H 12 V 9 H 11 V 7.03 L 13,7 14,7.03 V 10.97 C 14,10.97 14,13 12,13 H 10 C 10,13 8,13 8,11 V 5 C 8,3 10,3 10,3 Z"/>
</svg>
